X: 061
T: Countess of Louden
C: attr. John French (1753-1803)
R: strathspey
B: "John French Collection", John French ed. p.6 #1
S: http://www.heallan.com/french.asp
Z: 2012 John Chambers <jc:trillian.mit.edu>
M: C
L: 1/8
K: A
F | E>FA>B cA-A>c | (TB>AB)>c d>cB>c | E>Ac>e d>cBf | e<cB>c A2A :|
(f/g/) | a>gf>e c>Ad>f | g>ef>a ge-ef/g/ | a>gf>e d>cB>f | ecBc {G}A2A ||
 f/g/  | a>gf>e c>Ad>f | g>ef>a ge-ef/g/ | a>gf>e f<ag>b | e<cB>c A2-A |]

%%sep 2 1 500
%%sep 1 1 500

